Newaita-dark/apps/16/bibletime.svg

<svg height="16" viewBox="0 0 16 16" width="16" xmlns="http://www.w3.org/2000/svg" xmlns:xlink="http://www.w3.org/1999/xlink"><linearGradient id="a" gradientUnits="userSpaceOnUse" x1="7.93826" x2="7.93826" y1="14.0169685" y2="14.67849050002"><stop offset="0" stop-opacity=".27451"/><stop offset="1" stop-opacity="0"/></linearGradient><linearGradient id="b"><stop offset="0" stop-opacity=".313726"/><stop offset=".222222" stop-opacity=".27451"/><stop offset="1" stop-opacity="0"/></linearGradient><radialGradient id="c" cx="450.908936" cy="189.579361" gradientTransform="matrix(.00000009 -.0390662 -.0703192 -.00000005 25.073043 31.797666)" gradientUnits="userSpaceOnUse" r="21.166656" xlink:href="#b"/><radialGradient id="d" cx="450.908936" cy="189.579361" gradientTransform="matrix(-.00000009 .0390662 .0703192 .00000005 -9.196524 -3.76374)" gradientUnits="userSpaceOnUse" r="21.166656" xlink:href="#b"/><radialGradient id="e" cx="450.908936" cy="189.579361" gradientTransform="matrix(-.00000009 -.0390662 .0703192 -.00000005 -9.196524 31.797666)" gradientUnits="userSpaceOnUse" r="21.166656" xlink:href="#b"/><radialGradient id="f" cx="450.908936" cy="189.579361" gradientTransform="matrix(.00000009 .0390662 -.0703192 .00000005 25.073042 -3.76374)" gradientUnits="userSpaceOnUse" r="21.166656" xlink:href="#b"/><linearGradient id="g"><stop offset="0" stop-color="#424242"/><stop offset="1" stop-color="#757575"/></linearGradient><linearGradient id="h" gradientTransform="matrix(.0376748 0 0 .108706 -2.927007 16.820674)" gradientUnits="userSpaceOnUse" x1="306.916656" x2="305.954559" xlink:href="#g" y1="-25.791676" y2="-141.414581"/><linearGradient id="i" gradientTransform="matrix(4.556143 0 0 13.146184 -353.972656 2034.180176)" gradientUnits="userSpaceOnUse" x1="165.484848" x2="165.484848" xlink:href="#g" y1="-25.791672" y2="-141.414581"/><linearGradient id="j"><stop offset="0" stop-color="#ffa726"/><stop offset="1" stop-color="#ffb74d"/></linearGradient><linearGradient id="k" gradientUnits="userSpaceOnUse" x1="8.5997808" x2="8.5997808" xlink:href="#j" y1="14.01696600048" y2="1.4480552201"/><linearGradient id="l" gradientUnits="userSpaceOnUse" x1="275.166314" x2="275.166314" xlink:href="#j" y1="233.49969318561" y2="-168.66647475188"/><linearGradient id="m" gradientUnits="userSpaceOnUse" x1="3.30760950003" x2="3.30760950003" xlink:href="#g" y1="5.25181134375" y2="4.59028956251"/><linearGradient id="n" gradientUnits="userSpaceOnUse" x1="3.30760950003" x2="3.30760950003" xlink:href="#g" y1="10.70936434375" y2="10.04784256251"/><path d="m3.96875 14.015625h7.9375v.664063h-7.9375zm0 0" fill="url(#a)"/><path d="m11.90625 14.015625h1.324219v-.660156h-1.324219zm0 0" fill="url(#c)"/><path d="m3.96875 14.015625h-1.324219v.664063h1.324219zm0 0" fill="url(#d)"/><path d="m3.96875 14.015625h-1.324219v-.660156h1.324219zm0 0" fill="url(#e)"/><path d="m11.90625 14.015625h1.324219v.664063h-1.324219zm0 0" fill="url(#f)"/><path d="m3.308594 1.449219h9.261718c.363282 0 .660157.296875.660157.660156v11.246094c0 .367187-.296875.660156-.660157.660156h-9.261718c-.367188 0-.664063-.292969-.664063-.660156v-11.246094c0-.363281.296875-.660156.664063-.660156zm0 0" fill="url(#h)"/><path d="m400.119292 175.258863c-44.405211 0-80.307296 35.42969-80.307296 79.8349v1360.027676c0 44.405211 35.902085 79.8349 80.307296 79.8349h119.988548v-1519.697476zm0 0" fill="url(#i)" stroke="#212121" stroke-linecap="round" stroke-width="11.338583" transform="scale(.00826902)"/><path d="m3.308594 13.980469c-.367188 0-.664063-.296875-.664063-.664063v-.082031c0 .367187.296875.664063.664063.664063h9.261718c.363282 0 .660157-.296876.660157-.664063v.082031c0 .367188-.296875.664063-.660157.664063zm0 0" fill-opacity=".196078"/><path d="m3.308594 1.484375c-.367188 0-.664063.296875-.664063.664063v.082031c0-.367188.296875-.664063.664063-.664063h9.261718c.363282 0 .660157.296875.660157.664063v-.082031c0-.367188-.296875-.664063-.660157-.664063zm0 0" fill="#fff" fill-opacity=".392157"/><path d="m3.308594 1.402344c-.394532 0-.710938.316406-.710938.707031v11.246094c0 .390625.316406.707031.710938.707031h9.261718c.390626 0 .707032-.316406.707032-.707031v-11.246094c0-.390625-.316406-.707031-.707032-.707031zm0 .09375h9.261718c.339844 0 .613282.273437.613282.613281v11.246094c0 .339843-.273438.613281-.613282.613281h-9.261718c-.34375 0-.617188-.273438-.617188-.613281v-11.246094c0-.339844.273438-.613281.617188-.613281zm0 0" fill="#212121"/><path d="m8.601562 3.101562c-.183593 0-.332031.148438-.332031.332032v1.984375h-1.984375c-.183594 0-.332031.148437-.332031.328125v.332031c0 .183594.148437.332031.332031.332031h1.984375v3.96875c0 .183594.148438.332032.332031.332032h.328126c.183593 0 .332031-.148438.332031-.332032v-3.96875h1.984375c.183594 0 .332031-.148437.332031-.332031v-.332031c0-.179688-.148437-.328125-.332031-.328125h-1.984375v-1.984375c0-.183594-.148438-.332032-.332031-.332032zm0 0" fill="url(#k)"/><path d="m8.601562 3.101562c-.183593 0-.332031.148438-.332031.332032v.164062c0-.183594.148438-.332031.332031-.332031h.328126c.183593 0 .332031.148437.332031.332031v-.164062c0-.183594-.148438-.332032-.332031-.332032zm-2.316406 2.316407c-.183594 0-.332031.148437-.332031.328125v.167968c0-.183593.148437-.332031.332031-.332031h1.984375v-.164062zm2.976563 0v.164062h1.984375c.183594 0 .332031.148438.332031.332031v-.167968c0-.179688-.148437-.328125-.332031-.328125zm0 0" fill="#fff" fill-opacity=".392157"/><path d="m5.953125 6.078125v.164063c0 .183593.148437.332031.332031.332031h1.984375v-.164063h-1.984375c-.183594 0-.332031-.148437-.332031-.332031zm5.625 0c0 .183594-.148437.332031-.332031.332031h-1.984375v.164063h1.984375c.183594 0 .332031-.148438.332031-.332031zm-3.308594 4.300781v.164063c0 .183593.148438.332031.332031.332031h.328126c.183593 0 .332031-.148438.332031-.332031v-.164063c0 .183594-.148438.332032-.332031.332032h-.328126c-.183593 0-.332031-.148438-.332031-.332032zm0 0" fill-opacity=".235294"/><path d="m1040.21568 375.082311c-22.202606 0-40.153648 17.951043-40.153648 40.153648v239.977096h-239.977096c-22.202606 0-40.153648 17.951043-40.153648 39.681252v40.153648c0 22.202606 17.951042 40.153648 40.153648 40.153648h239.977096v479.954192c0 22.202605 17.951042 40.153648 40.153648 40.153648h39.681252c22.202605 0 40.153648-17.951043 40.153648-40.153648v-479.954192h239.977096c22.202605 0 40.153648-17.951042 40.153648-40.153648v-40.153648c0-21.730209-17.951043-39.681252-40.153648-39.681252h-239.977096v-239.977096c0-22.202605-17.951043-40.153648-40.153648-40.153648zm0 0" fill="none" stroke="#212121" stroke-linecap="round" stroke-linejoin="round" stroke-width="11.338583" transform="scale(.00826902)"/><path d="m148.110856-147.506445v359.840637h243.476749c5.874439 0 10.623986-4.749547 10.623986-10.623986v-338.592666c0-5.874439-4.749547-10.623985-10.623986-10.623985zm0 0" style="fill:none;stroke-width:8;stroke-linecap:round;stroke-linejoin:round;stroke-dasharray:16.000002 16.000002;stroke-dashoffset:7.200001;stroke:url(#l)" transform="matrix(.031253 0 0 .031253 0 6.719392)"/><path d="m2.644531 4.589844h1.65625v.660156h-1.65625zm0 0" fill="url(#m)"/><path d="m2.644531 5.25v.25h1.65625v-.25zm0 0" fill-opacity=".235294"/><path d="m2.644531 4.589844v.164062h1.65625v-.164062zm0 0" fill="#fff" fill-opacity=".392157"/><path d="m84.616927-20.514265h52.994939v21.122983h-52.994939zm0 0" fill="none" stroke="#212121" stroke-linecap="round" stroke-linejoin="round" stroke-width="3" transform="matrix(.031253 0 0 .031253 0 5.230976)"/><path d="m2.644531 10.046875h1.65625v.664063h-1.65625zm0 0" fill="url(#n)"/><path d="m2.644531 10.710938v.246093h1.65625v-.246093zm0 0" fill-opacity=".235294"/><path d="m2.644531 10.046875v.167969h1.65625v-.167969zm0 0" fill="#fff" fill-opacity=".392157"/><path d="m84.616927-20.530958h52.994939v21.247971h-52.994939zm0 0" fill="none" stroke="#212121" stroke-linecap="round" stroke-linejoin="round" stroke-width="3" transform="matrix(.031253 0 0 .031253 0 10.688529)"/></svg>

<?xml version="1.0" encoding="UTF-8"?>
<svg xmlns="http://www.w3.org/2000/svg" xmlns:xlink="http://www.w3.org/1999/xlink" width="16px" height="16px" viewBox="0 0 16 16" version="1.1">
<defs>
<linearGradient id="linear0" gradientUnits="userSpaceOnUse" x1="254" y1="233.5" x2="254" y2="254.666672" gradientTransform="matrix(0.031253,0,0,0.031253,-0.00000190753,6.719393)">
<stop offset="0" style="stop-color:rgb(0%,0%,0%);stop-opacity:0.27451;"/>
<stop offset="1" style="stop-color:rgb(0%,0%,0%);stop-opacity:0;"/>
</linearGradient>
<radialGradient id="radial0" gradientUnits="userSpaceOnUse" cx="450.908936" cy="189.579361" fx="450.908936" fy="189.579361" r="21.166656" gradientTransform="matrix(0.0000000870852,-0.0390662,-0.0703192,-0.0000000507693,25.073043,31.797666)">
<stop offset="0" style="stop-color:rgb(0%,0%,0%);stop-opacity:0.313726;"/>
<stop offset="0.222222" style="stop-color:rgb(0%,0%,0%);stop-opacity:0.27451;"/>
<stop offset="1" style="stop-color:rgb(0%,0%,0%);stop-opacity:0;"/>
</radialGradient>
<radialGradient id="radial1" gradientUnits="userSpaceOnUse" cx="450.908936" cy="189.579361" fx="450.908936" fy="189.579361" r="21.166656" gradientTransform="matrix(-0.0000000870852,0.0390662,0.0703192,0.0000000507693,-9.196524,-3.76374)">
<stop offset="0" style="stop-color:rgb(0%,0%,0%);stop-opacity:0.313726;"/>
<stop offset="0.222222" style="stop-color:rgb(0%,0%,0%);stop-opacity:0.27451;"/>
<stop offset="1" style="stop-color:rgb(0%,0%,0%);stop-opacity:0;"/>
</radialGradient>
<radialGradient id="radial2" gradientUnits="userSpaceOnUse" cx="450.908936" cy="189.579361" fx="450.908936" fy="189.579361" r="21.166656" gradientTransform="matrix(-0.0000000870852,-0.0390662,0.0703192,-0.0000000507693,-9.196524,31.797666)">
<stop offset="0" style="stop-color:rgb(0%,0%,0%);stop-opacity:0.313726;"/>
<stop offset="0.222222" style="stop-color:rgb(0%,0%,0%);stop-opacity:0.27451;"/>
<stop offset="1" style="stop-color:rgb(0%,0%,0%);stop-opacity:0;"/>
</radialGradient>
<radialGradient id="radial3" gradientUnits="userSpaceOnUse" cx="450.908936" cy="189.579361" fx="450.908936" fy="189.579361" r="21.166656" gradientTransform="matrix(0.0000000870852,0.0390662,-0.0703192,0.0000000507693,25.073042,-3.76374)">
<stop offset="0" style="stop-color:rgb(0%,0%,0%);stop-opacity:0.313726;"/>
<stop offset="0.222222" style="stop-color:rgb(0%,0%,0%);stop-opacity:0.27451;"/>
<stop offset="1" style="stop-color:rgb(0%,0%,0%);stop-opacity:0;"/>
</radialGradient>
<linearGradient id="linear1" gradientUnits="userSpaceOnUse" x1="306.916656" y1="-25.791676" x2="305.954559" y2="-141.414581" gradientTransform="matrix(0.0376748,0,0,0.108706,-2.927007,16.820674)">
<stop offset="0" style="stop-color:rgb(25.882354%,25.882354%,25.882354%);stop-opacity:1;"/>
<stop offset="1" style="stop-color:rgb(45.882353%,45.882353%,45.882353%);stop-opacity:1;"/>
</linearGradient>
<linearGradient id="linear2" gradientUnits="userSpaceOnUse" x1="165.484848" y1="-25.791672" x2="165.484848" y2="-141.414581" gradientTransform="matrix(4.556143,0,0,13.146184,-353.972656,2034.180176)">
<stop offset="0" style="stop-color:rgb(25.882354%,25.882354%,25.882354%);stop-opacity:1;"/>
<stop offset="1" style="stop-color:rgb(45.882353%,45.882353%,45.882353%);stop-opacity:1;"/>
</linearGradient>
<linearGradient id="linear3" gradientUnits="userSpaceOnUse" x1="1040" y1="1695.118164" x2="1040" y2="175.118118" gradientTransform="matrix(0.00826902,0,0,0.00826902,0,0)">
<stop offset="0" style="stop-color:rgb(100%,65.490198%,14.901961%);stop-opacity:1;"/>
<stop offset="1" style="stop-color:rgb(100%,71.764708%,30.19608%);stop-opacity:1;"/>
</linearGradient>
<linearGradient id="linear4" gradientUnits="userSpaceOnUse" x1="1040" y1="1695.118164" x2="1040" y2="175.118134" gradientTransform="matrix(0.264583,0,0,0.264583,-0.00000633333,-214.999756)">
<stop offset="0" style="stop-color:rgb(100%,65.490198%,14.901961%);stop-opacity:1;"/>
<stop offset="1" style="stop-color:rgb(100%,71.764708%,30.19608%);stop-opacity:1;"/>
</linearGradient>
<linearGradient id="linear5" gradientUnits="userSpaceOnUse" x1="105.833344" y1="0.666667" x2="105.833344" y2="-20.499998" gradientTransform="matrix(0.031253,0,0,0.031253,-0.000000229189,5.230976)">
<stop offset="0" style="stop-color:rgb(25.882354%,25.882354%,25.882354%);stop-opacity:1;"/>
<stop offset="1" style="stop-color:rgb(45.882353%,45.882353%,45.882353%);stop-opacity:1;"/>
</linearGradient>
<linearGradient id="linear6" gradientUnits="userSpaceOnUse" x1="105.833344" y1="0.666667" x2="105.833344" y2="-20.499998" gradientTransform="matrix(0.031253,0,0,0.031253,-0.000000229189,10.688529)">
<stop offset="0" style="stop-color:rgb(25.882354%,25.882354%,25.882354%);stop-opacity:1;"/>
<stop offset="1" style="stop-color:rgb(45.882353%,45.882353%,45.882353%);stop-opacity:1;"/>
</linearGradient>
</defs>
<g id="surface1">
<path style=" stroke:none;fill-rule:nonzero;fill:url(#linear0);" d="M 3.96875 14.015625 L 11.90625 14.015625 L 11.90625 14.679688 L 3.96875 14.679688 Z M 3.96875 14.015625 "/>
<path style=" stroke:none;fill-rule:nonzero;fill:url(#radial0);" d="M 11.90625 14.015625 L 13.230469 14.015625 L 13.230469 13.355469 L 11.90625 13.355469 Z M 11.90625 14.015625 "/>
<path style=" stroke:none;fill-rule:nonzero;fill:url(#radial1);" d="M 3.96875 14.015625 L 2.644531 14.015625 L 2.644531 14.679688 L 3.96875 14.679688 Z M 3.96875 14.015625 "/>
<path style=" stroke:none;fill-rule:nonzero;fill:url(#radial2);" d="M 3.96875 14.015625 L 2.644531 14.015625 L 2.644531 13.355469 L 3.96875 13.355469 Z M 3.96875 14.015625 "/>
<path style=" stroke:none;fill-rule:nonzero;fill:url(#radial3);" d="M 11.90625 14.015625 L 13.230469 14.015625 L 13.230469 14.679688 L 11.90625 14.679688 Z M 11.90625 14.015625 "/>
<path style=" stroke:none;fill-rule:nonzero;fill:url(#linear1);" d="M 3.308594 1.449219 L 12.570312 1.449219 C 12.933594 1.449219 13.230469 1.746094 13.230469 2.109375 L 13.230469 13.355469 C 13.230469 13.722656 12.933594 14.015625 12.570312 14.015625 L 3.308594 14.015625 C 2.941406 14.015625 2.644531 13.722656 2.644531 13.355469 L 2.644531 2.109375 C 2.644531 1.746094 2.941406 1.449219 3.308594 1.449219 Z M 3.308594 1.449219 "/>
<path style="fill-rule:nonzero;fill:url(#linear2);stroke-width:11.338583;stroke-linecap:round;stroke-linejoin:miter;stroke:rgb(12.941177%,12.941177%,12.941177%);stroke-opacity:1;stroke-miterlimit:4;" d="M 400.119292 175.258863 C 355.714081 175.258863 319.811996 210.688553 319.811996 255.093763 L 319.811996 1615.121439 C 319.811996 1659.52665 355.714081 1694.956339 400.119292 1694.956339 L 520.10784 1694.956339 L 520.10784 175.258863 Z M 400.119292 175.258863 " transform="matrix(0.00826902,0,0,0.00826902,0,0)"/>
<path style=" stroke:none;fill-rule:nonzero;fill:rgb(0%,0%,0%);fill-opacity:0.196078;" d="M 3.308594 13.980469 C 2.941406 13.980469 2.644531 13.683594 2.644531 13.316406 L 2.644531 13.234375 C 2.644531 13.601562 2.941406 13.898438 3.308594 13.898438 L 12.570312 13.898438 C 12.933594 13.898438 13.230469 13.601562 13.230469 13.234375 L 13.230469 13.316406 C 13.230469 13.683594 12.933594 13.980469 12.570312 13.980469 Z M 3.308594 13.980469 "/>
<path style=" stroke:none;fill-rule:nonzero;fill:rgb(100%,100%,100%);fill-opacity:0.392157;" d="M 3.308594 1.484375 C 2.941406 1.484375 2.644531 1.78125 2.644531 2.148438 L 2.644531 2.230469 C 2.644531 1.863281 2.941406 1.566406 3.308594 1.566406 L 12.570312 1.566406 C 12.933594 1.566406 13.230469 1.863281 13.230469 2.230469 L 13.230469 2.148438 C 13.230469 1.78125 12.933594 1.484375 12.570312 1.484375 Z M 3.308594 1.484375 "/>
<path style=" stroke:none;fill-rule:nonzero;fill:rgb(12.941177%,12.941177%,12.941177%);fill-opacity:1;" d="M 3.308594 1.402344 C 2.914062 1.402344 2.597656 1.71875 2.597656 2.109375 L 2.597656 13.355469 C 2.597656 13.746094 2.914062 14.0625 3.308594 14.0625 L 12.570312 14.0625 C 12.960938 14.0625 13.277344 13.746094 13.277344 13.355469 L 13.277344 2.109375 C 13.277344 1.71875 12.960938 1.402344 12.570312 1.402344 Z M 3.308594 1.496094 L 12.570312 1.496094 C 12.910156 1.496094 13.183594 1.769531 13.183594 2.109375 L 13.183594 13.355469 C 13.183594 13.695312 12.910156 13.96875 12.570312 13.96875 L 3.308594 13.96875 C 2.964844 13.96875 2.691406 13.695312 2.691406 13.355469 L 2.691406 2.109375 C 2.691406 1.769531 2.964844 1.496094 3.308594 1.496094 Z M 3.308594 1.496094 "/>
<path style=" stroke:none;fill-rule:nonzero;fill:url(#linear3);" d="M 8.601562 3.101562 C 8.417969 3.101562 8.269531 3.25 8.269531 3.433594 L 8.269531 5.417969 L 6.285156 5.417969 C 6.101562 5.417969 5.953125 5.566406 5.953125 5.746094 L 5.953125 6.078125 C 5.953125 6.261719 6.101562 6.410156 6.285156 6.410156 L 8.269531 6.410156 L 8.269531 10.378906 C 8.269531 10.5625 8.417969 10.710938 8.601562 10.710938 L 8.929688 10.710938 C 9.113281 10.710938 9.261719 10.5625 9.261719 10.378906 L 9.261719 6.410156 L 11.246094 6.410156 C 11.429688 6.410156 11.578125 6.261719 11.578125 6.078125 L 11.578125 5.746094 C 11.578125 5.566406 11.429688 5.417969 11.246094 5.417969 L 9.261719 5.417969 L 9.261719 3.433594 C 9.261719 3.25 9.113281 3.101562 8.929688 3.101562 Z M 8.601562 3.101562 "/>
<path style=" stroke:none;fill-rule:nonzero;fill:rgb(100%,100%,100%);fill-opacity:0.392157;" d="M 8.601562 3.101562 C 8.417969 3.101562 8.269531 3.25 8.269531 3.433594 L 8.269531 3.597656 C 8.269531 3.414062 8.417969 3.265625 8.601562 3.265625 L 8.929688 3.265625 C 9.113281 3.265625 9.261719 3.414062 9.261719 3.597656 L 9.261719 3.433594 C 9.261719 3.25 9.113281 3.101562 8.929688 3.101562 Z M 6.285156 5.417969 C 6.101562 5.417969 5.953125 5.566406 5.953125 5.746094 L 5.953125 5.914062 C 5.953125 5.730469 6.101562 5.582031 6.285156 5.582031 L 8.269531 5.582031 L 8.269531 5.417969 Z M 9.261719 5.417969 L 9.261719 5.582031 L 11.246094 5.582031 C 11.429688 5.582031 11.578125 5.730469 11.578125 5.914062 L 11.578125 5.746094 C 11.578125 5.566406 11.429688 5.417969 11.246094 5.417969 Z M 9.261719 5.417969 "/>
<path style=" stroke:none;fill-rule:nonzero;fill:rgb(0%,0%,0%);fill-opacity:0.235294;" d="M 5.953125 6.078125 L 5.953125 6.242188 C 5.953125 6.425781 6.101562 6.574219 6.285156 6.574219 L 8.269531 6.574219 L 8.269531 6.410156 L 6.285156 6.410156 C 6.101562 6.410156 5.953125 6.261719 5.953125 6.078125 Z M 11.578125 6.078125 C 11.578125 6.261719 11.429688 6.410156 11.246094 6.410156 L 9.261719 6.410156 L 9.261719 6.574219 L 11.246094 6.574219 C 11.429688 6.574219 11.578125 6.425781 11.578125 6.242188 Z M 8.269531 10.378906 L 8.269531 10.542969 C 8.269531 10.726562 8.417969 10.875 8.601562 10.875 L 8.929688 10.875 C 9.113281 10.875 9.261719 10.726562 9.261719 10.542969 L 9.261719 10.378906 C 9.261719 10.5625 9.113281 10.710938 8.929688 10.710938 L 8.601562 10.710938 C 8.417969 10.710938 8.269531 10.5625 8.269531 10.378906 Z M 8.269531 10.378906 "/>
<path style="fill:none;stroke-width:11.338583;stroke-linecap:round;stroke-linejoin:round;stroke:rgb(12.941177%,12.941177%,12.941177%);stroke-opacity:1;stroke-miterlimit:4;" d="M 1040.21568 375.082311 C 1018.013074 375.082311 1000.062032 393.033354 1000.062032 415.235959 L 1000.062032 655.213055 L 760.084936 655.213055 C 737.88233 655.213055 719.931288 673.164098 719.931288 694.894307 L 719.931288 735.047955 C 719.931288 757.250561 737.88233 775.201603 760.084936 775.201603 L 1000.062032 775.201603 L 1000.062032 1255.155795 C 1000.062032 1277.3584 1018.013074 1295.309443 1040.21568 1295.309443 L 1079.896932 1295.309443 C 1102.099537 1295.309443 1120.05058 1277.3584 1120.05058 1255.155795 L 1120.05058 775.201603 L 1360.027676 775.201603 C 1382.230281 775.201603 1400.181324 757.250561 1400.181324 735.047955 L 1400.181324 694.894307 C 1400.181324 673.164098 1382.230281 655.213055 1360.027676 655.213055 L 1120.05058 655.213055 L 1120.05058 415.235959 C 1120.05058 393.033354 1102.099537 375.082311 1079.896932 375.082311 Z M 1040.21568 375.082311 " transform="matrix(0.00826902,0,0,0.00826902,0,0)"/>
<path style="fill:none;stroke-width:8;stroke-linecap:round;stroke-linejoin:round;stroke:url(#linear4);stroke-dasharray:16.000002,16.000002;stroke-dashoffset:7.200001;stroke-miterlimit:4;" d="M 148.110856 -147.506445 L 148.110856 212.334192 L 391.587605 212.334192 C 397.462044 212.334192 402.211591 207.584645 402.211591 201.710206 L 402.211591 -136.88246 C 402.211591 -142.756899 397.462044 -147.506445 391.587605 -147.506445 Z M 148.110856 -147.506445 " transform="matrix(0.031253,0,0,0.031253,0,6.719392)"/>
<path style=" stroke:none;fill-rule:nonzero;fill:url(#linear5);" d="M 2.644531 4.589844 L 4.300781 4.589844 L 4.300781 5.25 L 2.644531 5.25 Z M 2.644531 4.589844 "/>
<path style=" stroke:none;fill-rule:nonzero;fill:rgb(0%,0%,0%);fill-opacity:0.235294;" d="M 2.644531 5.25 L 2.644531 5.5 L 4.300781 5.5 L 4.300781 5.25 Z M 2.644531 5.25 "/>
<path style=" stroke:none;fill-rule:nonzero;fill:rgb(100%,100%,100%);fill-opacity:0.392157;" d="M 2.644531 4.589844 L 2.644531 4.753906 L 4.300781 4.753906 L 4.300781 4.589844 Z M 2.644531 4.589844 "/>
<path style="fill:none;stroke-width:3;stroke-linecap:round;stroke-linejoin:round;stroke:rgb(12.941177%,12.941177%,12.941177%);stroke-opacity:1;stroke-miterlimit:4;" d="M 84.616927 -20.514265 L 137.611866 -20.514265 L 137.611866 0.608718 L 84.616927 0.608718 Z M 84.616927 -20.514265 " transform="matrix(0.031253,0,0,0.031253,-0.000000229189,5.230976)"/>
<path style=" stroke:none;fill-rule:nonzero;fill:url(#linear6);" d="M 2.644531 10.046875 L 4.300781 10.046875 L 4.300781 10.710938 L 2.644531 10.710938 Z M 2.644531 10.046875 "/>
<path style=" stroke:none;fill-rule:nonzero;fill:rgb(0%,0%,0%);fill-opacity:0.235294;" d="M 2.644531 10.710938 L 2.644531 10.957031 L 4.300781 10.957031 L 4.300781 10.710938 Z M 2.644531 10.710938 "/>
<path style=" stroke:none;fill-rule:nonzero;fill:rgb(100%,100%,100%);fill-opacity:0.392157;" d="M 2.644531 10.046875 L 2.644531 10.214844 L 4.300781 10.214844 L 4.300781 10.046875 Z M 2.644531 10.046875 "/>
<path style="fill:none;stroke-width:3;stroke-linecap:round;stroke-linejoin:round;stroke:rgb(12.941177%,12.941177%,12.941177%);stroke-opacity:1;stroke-miterlimit:4;" d="M 84.616927 -20.530958 L 137.611866 -20.530958 L 137.611866 0.717013 L 84.616927 0.717013 Z M 84.616927 -20.530958 " transform="matrix(0.031253,0,0,0.031253,-0.000000229189,10.688529)"/>
</g>
</svg>
